X:1
T:Polska i D-dur efter Gottfrid Pettersson
M:3/4
L:1/16
C: Gottfrid Pettersson
O: Kallinge, Blekinge
Q: 1/4=100
R: Polska
K:D
A2d2 d2.e.f (ge)cA | A2d2 d2(ef) (ge)cA | A2.A.B G2.G.B A2A2 | AFAF A2d2 d2 z2 :| 
|: (de).f.g a2af a2af | e2.e.f g2.g.e g2ge | (de).f.g a2af a2af | e2ef g2ge g2ge |
d2cB A2A2 AFAF | A2d2 d4 z4 :|]

